app/dist/common/images/ispecimen.svg

<svg height="18" viewBox="0 0 18 18" width="18" xmlns="http://www.w3.org/2000/svg"><path d="m0 0h18v18h-18z" fill="#f0f3fa"/><path d="m11 5.2c1.74 2.6.82 4.6.14 5.29 1.06-2.87-1.33-4.87-2.66-5.5-.15-.08-.87-.3-.82-1.14.04-.83.71-.92.92-.81a7.37 7.37 0 0 1 2.42 2.16zm-4 7.6c-1.74-2.6-.82-4.6-.14-5.29-1.06 2.87 1.33 4.87 2.66 5.5.15.08.87.3.82 1.14-.04.83-.71.92-.92.81a7.38 7.38 0 0 1 -2.42-2.16z" fill="#094992"/><path d="m10.21 7h-2.48l-.73 1.7v.57l.8 1.73h2.41l.79-1.73v-.57z" fill="#258261" fill-opacity=".7"/></svg>

<!-- by TradingView --><svg xmlns="http://www.w3.org/2000/svg" width="18" height="18" viewBox="0 0 18 18"><path fill="#F0F3FA" d="M0 0h18v18H0z"/><path d="M11 5.2c1.74 2.6.82 4.6.14 5.29 1.06-2.87-1.33-4.87-2.66-5.5-.15-.08-.87-.3-.82-1.14.04-.83.71-.92.92-.81A7.37 7.37 0 0 1 11 5.2zM7 12.8c-1.74-2.6-.82-4.6-.14-5.29-1.06 2.87 1.33 4.87 2.66 5.5.15.08.87.3.82 1.14-.04.83-.71.92-.92.81A7.38 7.38 0 0 1 7 12.8z" fill="#094992"/><path d="M10.21 7H7.73L7 8.7v.57L7.8 11h2.41L11 9.27V8.7L10.21 7z" fill="#258261" fill-opacity=".7"/></svg>
